X: 43295
T: Wooden Table, The
R: hornpipe
M: 4/4
K: Gmajor
|:(3DEF|G2 BA G3B|d2 gf e3f|g3d ecAG|FGAF DEFD|
G2 BA G3B|dggf e3f|g3d ecAF|AGGF G2:|
|:Bc|dgba g3d|efge dB B2|dgba gedB|eAAG A2 (3DEF|
G2 BA G3B|d2 gf e3f|g3d ecAF|AGGF G2:|

